!!!OTL: Wer wohl ein reicher Bauer will sein (3-47), S. 138
!!!id: P1019
**kern
*clefG2
*k[b-e-]
*g:
{4f
=1
4b-
4b-
4b-
4f
=2
8b-
8b-
4b-
4b-}
=3
{4f
=4
8b-
8b-
4cc
8dd
8dd
4cc
=5
4f
4a
2b-}
=6
2r
=7
{2b-
=8
4dd
4cc
8b-
8b-
4dd
=9
2cc
4g}
=10
{4g
=11
4e-
4f
4g
4e-
=12
4g
4g
4g}
=13
{4f
=14
4b-
4b-
8g
8g
4f
=15
2g
4g}
==
*-
!!!minrhy: 8
!!!meters: 2/2 ]  ZZ[5
!!!cut: Wer wohl ein reicher Bauer will sein (3-47), S. 138
!!!reg: Lothringen
!!!trd: PINCK, Louis: Verklingende Weisen, Bd3, Metz 1933
!!!rhy1: X_  X_X_X_X_  XXX_X_
!!!rhy2: X_  XXX_XXX_  X_X_X__  0__
!!!key: P1019  08  G 2/2 ]  ZZ[5
!!!mod: HEPTATONIK AEOLISCH]  AMBITUS[7
!!!kad: 3b3b111
!!!akz: 3b3b_3b-7b_54_-6b1_3b1_
!!!fot: 'a__b__c__as"as"
!!!for: 'a__b__c__d__cv_
!!!fok: '/__~a_^d_V__^a_
!! PHRAS[AUFTAKTIG]
!!!fkt: Berufslied
!! LOTH VKL
!! PR[26] 2K[3] 2G[15] 3K[10] 3G[8] 4A[0] 4Ü[0] 5A[0] 6K[0] 6G[0]
!! 7K[0] 7G[0] 8A[0] MEHR[0] SI[36] ABS[39] SR[18] SP[18]
!! ST[10] 2k[5] 2g[18] 3k[8] 3g[8] 4d[0] 4ü[0] 5d[0] 6k[0] 6g[0]
!! 7k[0] 7g[0] 8d[0] mehr[0] si[38] dm[-2] sr[23] sp[15]
!! 1F[13] 2F[80] 3F[5] 4F[0] LF[0] 2P[3] 3P[0] 4P[0] TRI[0] DF[4] AB[40]
!! TF[0] U3K[0] U3[0] U4[0] U4Ü[0] U5[0] U6K[0] U6[0] U7K[0] U7[3]
!! N1[25] N2K[0] N2[25] N3K[0] N3[30] N4[10] N4Ü[0] N5[8] N6K[0] N6[0]
!!!n7k: 0] N7[0] O1[0] O2K[0] O2[0] O3K[0] O3[0] HÖ[0
